X:80
T:The Earl's chair
R:Reel
O:Ireland
B:Ceol Rince 1 n142
Z:Transcription:John B. Walsh ?,chords:Mike Long
M:C|
L:1/8
K:D
"Bm"B2dB BAFA|B2dB BAFB|"D"AF~F2 DF~F2|AFdB ADFA|\
"Bm"B3d BAFA|~B2dB BAFB|
"D"AFAB dcdf|[1 "A"edef "D"d3A:|[2 "A"edef "D"d3f\
|:"A"~e3f "D"d2(3(Bcd)|"A"edef "D"dBAB|
"A"~e3f "D"d3e|"Bm"fedB "D"ADFA|\
"A"~e3f "Bm"dB~B2|"G"gB ~B2 defg|"D"afbf afeg|"A"fedB "(D)"ADFA:|
